X: 12547
T: Farewell To Lisheen
R: jig
M: 6/8
K: Dmajor
|:z|dAd cAc BAF AFD|dAd cAc BAF E2 A|
dAd cAc BAF ABd|D2 F AFD EFE D2:|
|:A|DEF ABc BAF AFE|DEF ABc BAF E/F/FA|
DEF ABc BAF ABd|D2 F AFD EFE D2:|

